crosshairs-question.svg

<svg fill="currentColor" viewBox="0 0 24 24"><path d="M3.05 13H1v-2h2.05C3.5 6.83 6.83 3.5 11 3.05V1h2v2.05c4.17.45 7.5 3.78 7.95 7.95H23v2h-2.05c-.45 4.17-3.78 7.5-7.95 7.95V23h-2v-2.05C6.83 20.5 3.5 17.17 3.05 13M12 5c-3.87 0-7 3.13-7 7s3.13 7 7 7 7-3.13 7-7-3.13-7-7-7m-.87 12.25h1.75V15.5h-1.75zM12 6.75c-1.93 0-3.5 1.57-3.5 3.5h1.75c0-.97.78-1.75 1.75-1.75s1.75.78 1.75 1.75c0 1.75-2.62 1.53-2.62 4.38h1.75c0-1.97 2.62-2.19 2.62-4.38 0-1.93-1.57-3.5-3.5-3.5"/></svg>

<svg  viewBox="0 0 24 24" fill="currentColor"><path  d="M3.05 13H1V11H3.05C3.5 6.83 6.83 3.5 11 3.05V1H13V3.05C17.17 3.5 20.5 6.83 20.95 11H23V13H20.95C20.5 17.17 17.17 20.5 13 20.95V23H11V20.95C6.83 20.5 3.5 17.17 3.05 13M12 5C8.13 5 5 8.13 5 12S8.13 19 12 19 19 15.87 19 12 15.87 5 12 5M11.13 17.25H12.88V15.5H11.13V17.25M12 6.75C10.07 6.75 8.5 8.32 8.5 10.25H10.25C10.25 9.28 11.03 8.5 12 8.5S13.75 9.28 13.75 10.25C13.75 12 11.13 11.78 11.13 14.63H12.88C12.88 12.66 15.5 12.44 15.5 10.25C15.5 8.32 13.93 6.75 12 6.75Z"/></svg>
